X:1
T:Poacher's Song
B:Journal of the Folk-Song Society 5 (1915) p.197
S:Mrs Joiner, Chiswell Green, Herts, Sept 9th 1914.
Z:Lucy Broadwood
F:http://www.folkinfo.org/songs
M:C     %Meter
L:1/8     %
K:C
B2 |c2 d2 c2 B2 |A2 G2 E2 B2 | c2 d2 c2 B2 | A4 z2
w:I work-ed for a gen-tle-man, I work-ed by the day *
 B2 |c3 d c2 B2 | (A2 G2) E2 G2 |(A2 F2) D2 C2 | G2 z2
w:Down in a lit-tle gar--den, Close by_ the high-way *
E3 D | C4 c4 |[M:2/4][L:1/16]B6 c2 |[M:C][L:1/8] A2 G2 E2 G2 | C8- |C6 |]
w:Fal de ral ri; fal de ral lal lal li day!